X:1
T:Mrs Buchan of Auchmacoy
T:Mrs Buchan of Auchmacoy
T:William Marshall
C:William Marshall
%%score { ( 1 2 ) ( 3 4 ) }
L:1/8
M:4/4
K:Bb
V:1 treble 
V:2 treble 
V:3 bass 
V:4 bass 
V:1
 F | (Bc/d/) BF ([FB]c/d/) BF |{e} d>cBd cCCc | (Bc/d/) BF ([FB]c/d/) [FB]F | %4
{e} [Fd]>[Ec][DB][CA] [DB]B,B, :| d/e/ | fd b2 fd b2 | fdbd gc cd/e/ | %8
 fd b2 (a/g/)(f/e/) (d/c/)(B/A/) | BG F/G/F/E/ DB, B,d/e/ | fd b2 fd b2 | fdbd gc cd/e/ | %12
 fdec{e} dBcA | B<GF>E DB,B, |] %14
V:2
 x | F2 x6 | x8 | F2 x6 | x7 :| x | x8 | x8 | x8 | x8 | x8 | x8 | x8 | x7 |] %14
V:3
 z | [Bb]2 [Bb]2 [Bb]2 [Bb]2 | [Bb]2 dB f2 F2 | [Bb]2 [Bb]2 [Bb]2 [Bb]2 | f2 F2 [B,B]2 [B,B] :| z | %6
 [bd']f'[bd']f' [bd']f'[bd']f' | [bd']f'[bd']f' [c'e']f'[ae']f' | [bd']f' [df]b [eg]c' [efa]c' | %9
 [db][eb] fF B2 B, z | [bd']f'[bd']f' [bd']f'[bd']f' | [bd']f'[bd']f' [c'e']f'[ae']f' | %12
 [bd'f']2 [ac'f']2 [bd'f']2 [efc']2 | b2 fF B2 B, |] %14
V:4
 x | x8 | x8 | x8 | x7 :| x | x8 | x8 | x8 | x8 | x8 | x8 | x8 | D,E, x x4 |] %14

